X: 460
T: Nao zhuangjia
L: 1/8
M: 2/4
K: F
A2A2 [I:setbarnb 1]| 
A f d f | 
A c A G | 
F E D C | 
F F F G | 
A2A c | 
d f d A | 
G4 |]

@@@ Tune index: 9334
